!!!COM: Claude Debussy
!!!CNT: Francais
!!!TXO: Francais
!!!OPR: Ariettes Oublie/es
!!!ONM: No. 5
!!!OTL: Green
!!!LYR: Paul Verlaine
!!!ENC: Jacob Pegg
!!!YOR: Claude Debussy: Songs 1880-1904, Edited by Rita Benton
!!!YOR: New York: Dover publications, inc., 1981
!!!YOR: ISBN 0-486-24131-9
!!!ODT: 1886/
!!NB: Vocal melody and text only encoded.
!!NB: First instance of melodic material only encoded.
**kern	**silbe
*clef G2	*
*k[b-e-a-d-g-c-]	*
*M6/8	*
*MM96	*
!! created: 6/27/03 9:30
!! last edited: 7/10/03 11:51
!! time (min) : input notes 39, words .  check : notes 16, words 8.
!! total edit time: about 70 min.
=5	=5
8.r	.
{8.a-	{Voi-
8.b-	-ci
8.cc-	des
=6	=6
(8.cc-	fruits,
8.ee-)	des
4ee-	fleurs,
(8ee-	des
=7	=7
4aa-	feuil-
8ee-	-les,
8cc-	et
8b-	|
8cc-	des
=8	=8
4.b-	bran-
4a-)}	-ches,}
8r	.
=9	=9
8.r	.
{8.a-	{Et
8.cc-	puis
8.ee-	voi-
=10	=10
8.b-	-ci
8.dd-	mon
4.ee-}	coeur}
=11	=11
8r	.
{8ff	{qui
8ee-	ne
8dd-	bat
8cc-	que
8ee-	pour
=12	=12
(4.b-	vous.
4.a-)}	|}
=13	=13
8.r	.
{8.gn	{Ne
8.an	le
8.bn	de/-
=14	=14
8.cc#	-chi-
8.ddn	-rez
4.ee-}	pas}
=15	=15
8.r	.
{8.gn	{a-
8.an	-vec
8.bn	vos
=16	=16
8.cc#	deux
8.een	mains
[4ggn	blan-
8ggn]}	-ches,}
=17	=17
8.r	.
{(8.ff	{Et
8.ee-	qu'a\
8.ccn	vos
=18	=18
8.b-	yeux
8.ccn	si
[4.e-)	beaux
=19	=19
8e-]	|
(8e-	l'hum-
8a-	-ble
8f	pre/-
8a-	-sent
8b-	soit
=20	=20
4b-)}	doux.}
8r	.
4r	.
8r	.
=21	=21
4r	.
4r	.
4r	.
=22	=22
4r	.
2r	.
=23	=23
4.r	.
4.r	.
=24	=24
8.r	.
{(8.a-	{J'ar-
8.b-	-ri-
8.dd-	-ve
=25	=25
8.ff	tout
8.dd-	cou-
8.b-	-vert
8.g-)	en-
!! changed note values from 8 to 8. to correct timing. 
=26	=26
(4g-	-co-
8c	-re
8g-	de
8a-	|
8b-	ro-
=27	=27
4.cc	-se/-
4b-)}	-e}
8r	.
=28	=28
8r	.
{(8a-	{Que
8a-	le
8b-	vent
8b-	du
8b-	ma-
=29	=29
8dd-	-tin
8dd-	vient
8dd-	gla-
8cc-	-cer
8cc-	a\
8cc-)	mon
=30	=30
[2.b-	front,
=31	=31
4b-]}	|}
8r	.
4r	.
8r	.
=32	=32
8.r	.
{8.b-	{Souf-
8.ff	-frez
8.dd-	que
=33	=33
8.cc	ma
8.ggn	fa-
[8.f	-ti-
16.f]}	-gue}
16.r	.
=34	=34
8r	.
{8gn	{a\
8b-	vos
8gn	pieds
8f	re-
8gn	-po-
=35	=35
4.e-	-se/-
4dn}	-e,}
8r	.
=36	=36
8.r	.
{(8.d-	{Re/-
8.en	-ve
8.f	des
=37	=37
8.an	chers
8.ff	in-
8.een	-stants
8.ddn	qui
=38	=38
8.dd-	la
8.b-	de-
8.a-	-las-
8.f)	-se-
=39	=39
[4f	-ront.
8f]}	|}
4r	.
8r	.
!!40-41 rest	
!!42-49 repeat of 1st phrase
!! slightly modified ending -
=49	=49
*k[b-e-a-d-g-]	*
*MM70	*
8r	.
{8g-	{Lais-
8g-	-sez
8f	la
8f	s'a-
8f	-pai-
=50	=50
8g-	-ser
8g-	de
8g-	la
8f	bon-
8f	-ne
8f	tem-
=51	=51
[4.b-	-pe^-
4b-]}	-te,}
8r	.
=52	=52
8.r	.
{8.g-	{Et
8.f	que
8.e-	je
=53	=53
8.e-	dor-
8.f	-me un
4.e-}	peu}
=54	=54
8r	.
{8d-	{Puis-
8d-	-que
8d-	vous
8d-	re-
8d-	-po-
=55	=55
[2.d-	-sez.
=56	=56
4d-]}	|}
8r	.
4r	.
8r	.
*-	*-
